src/assets/logo-scrumlr-beta.svg

<?xml version="1.0" encoding="UTF-8"?>
<svg width="166px" height="74px" viewBox="0 0 166 74" version="1.1" xmlns="http://www.w3.org/2000/svg" xmlns:xlink="http://www.w3.org/1999/xlink">
    <g id="Assets" stroke="none" stroke-width="1" fill="none" fill-rule="evenodd">
        <g id="logo-scrumlr-beta" fill="#ffffff">
            <path d="M8,61.4209703 C8,61.4209703 66.7470191,43.0714673 141.435805,40.0470867 C143.199051,39.9765577 144.686298,41.0488381 144.686298,42.3864989 C144.686298,43.6249409 143.41512,44.6482096 141.782777,44.7175433 C128.187799,45.2973158 69.2325973,48.4591683 15.6223347,61.4209703 C15.6223347,61.6206033 8,62.6175731 8,61.4209703 M127.930094,13.0185859 C129.581363,10.0351826 130.843078,8.03977985 131.037067,8.10694001 C131.328838,8.25469234 130.696404,10.4008324 129.046712,13.2917039 C127.930094,15.2677048 126.280402,17.6421894 124.192264,19.886831 C124.534504,19.0435979 126.668379,15.2453181 127.930094,13.0185859 M145.74393,23.249316 C146.083016,23.8627121 146.133485,24.9805555 145.598833,26.3148039 C144.433324,29.1415001 141.569231,31.5353865 138.804499,31.9040211 C135.842623,32.2980274 134.240245,30.4966428 134.240245,27.9669437 C134.240245,24.9686159 136.812566,21.016614 139.241368,17.8377001 C137.978076,18.5227336 136.763675,18.870474 135.697526,19.0585224 C132.055902,25.6327552 129.291169,30.3115793 128.609843,33.6352606 C128.415854,34.5038653 127.784997,35.0083127 126.911259,34.2337322 C126.247282,33.7203302 125.87823,33.009925 125.755213,32.2159427 C124.550276,33.0457437 123.189201,33.6994359 121.766617,33.8889768 C119.422982,34.1994059 117.798524,33.3740823 117.213404,31.4219605 C115.530592,33.496463 112.989814,35.1963611 110.696647,35.5023129 C107.395685,35.9410926 105.600896,34.4456598 105.600896,31.9159607 C105.600896,31.0712352 105.794885,30.0160746 106.327959,28.774358 C107.103914,27.0774448 108.707869,24.335818 109.822909,22.5001072 C110.890636,20.8106562 112.056145,19.2510482 111.66659,19.3032839 C111.278613,19.3540271 110.259778,19.9584685 107.395685,23.1045486 C103.608964,27.2610158 101.2811,32.0219245 99.2418535,36.6500053 C98.7560932,37.6066644 98.0779215,37.8365014 97.3003898,37.188779 C96.5701723,36.5843376 96.2326636,35.9739264 96.2326636,34.7545965 C96.2326636,33.9591218 96.6190638,32.4084685 97.1064011,31.1697368 C97.7845728,29.3952163 99.3869507,26.6520971 100.69598,24.508942 C102.008163,22.2284817 103.367661,20.2644203 102.929215,20.3241182 C102.541238,20.3763539 100.650243,21.6583666 97.7372585,25.1372625 C95.0198402,28.3102067 92.7850279,32.8696349 90.8940328,37.4305556 C90.5517926,38.2275227 90.0202953,38.5797404 89.1938721,37.9857462 C88.8547862,37.7514318 88.5661689,37.4395102 88.3595631,37.0544587 C87.0237226,38.1529003 85.4938933,38.9468826 84.0003384,39.1468706 C81.1362458,39.5274448 79.677388,38.361843 79.4849765,36.2798783 C77.8352844,38.2797584 75.6509406,40.021445 73.1748253,40.351276 C71.4809731,40.5766356 70.5047213,39.864738 70.0489268,38.7543568 C68.4323547,40.3109799 66.3221367,41.4049442 64.5825474,41.6347812 C61.4755746,42.0481892 59.7754139,40.2109859 59.7754139,37.4469725 C59.7754139,35.0112976 62.347735,30.2190475 65.0194161,26.8192513 C63.7072327,27.5087622 62.347735,27.9729135 61.2326945,28.1669317 C57.7377445,36.1261561 52.2997536,43.2197608 46.1362767,44.0391147 C41.6698062,44.6346014 39.2441595,42.1481832 39.2441595,38.491686 C39.2441595,36.8529782 39.7299197,34.912796 40.699863,32.9114234 C43.2737612,27.7893424 47.10622,24.6581868 49.9229983,24.2820899 C50.5538557,24.1985128 51.1358217,24.2149298 51.6215819,24.4313347 C53.0772854,25.0805495 53.9494457,25.8073716 54.4856745,26.7207497 C55.2127377,28.1221583 54.4367831,29.9116032 53.512577,31.863725 C53.1750683,32.609949 52.7855138,33.3651276 52.6404166,33.8994239 C52.2997536,34.9292129 52.1073421,35.1874064 50.8945187,34.7411645 C49.9229983,34.4008864 49.194358,33.5143724 49.194358,32.2517615 C49.194358,31.5473261 49.8267925,29.9160806 50.3109756,28.7758504 C50.7951587,27.7251671 51.2809189,26.7252271 51.0396159,26.5700125 C50.4071814,26.1849609 47.3002086,29.4578991 45.2625392,33.7083906 C44.2925959,35.7575215 43.8052586,37.6977037 43.8052586,39.1050821 C43.8052586,41.0721283 44.6316818,42.2735489 46.0384938,42.1795246 C50.7951587,41.7332827 55.9886923,34.2023908 58.5121219,28.1057413 C57.4948644,27.7744179 57.1542014,27.1147559 57.1542014,26.2267495 C57.1542014,23.7433162 60.3573799,19.8957857 62.0086491,19.6301299 C63.0274838,19.4943172 63.4154612,20.0524927 63.4154612,21.0822817 C63.4154612,22.0658048 63.0274838,23.5239264 62.4944093,25.1402474 C63.8523299,24.6298303 65.1645133,23.8477876 66.7179997,22.5642824 C67.4450629,21.9523788 68.2225946,21.659859 68.853452,22.232959 C69.6278295,22.9732131 70.2129497,24.0194191 70.2129497,25.238749 C70.2129497,25.7999094 69.9700696,26.5356862 69.3865265,27.2237046 C67.2999657,29.8429506 64.9200561,33.2024508 64.1441015,35.7903554 C63.9012214,36.5246397 63.7561242,37.2469845 63.7561242,37.9499274 C63.7561242,39.121499 64.1441015,39.7722062 64.8727418,39.7229555 C66.4088796,39.6498255 68.8991892,36.7246277 70.4116698,33.5576534 C71.5046303,30.4563467 73.9444713,25.5267914 76.9126554,21.1151156 C77.5435128,20.2330789 78.4172504,20.2091997 79.0007935,20.8360278 C79.5322908,21.4210674 79.7278566,22.1911705 79.7278566,22.8941134 C79.7278566,24.8148938 76.182438,30.72051 74.4854316,34.556101 C73.611694,36.545534 73.4650197,38.2961753 74.534323,38.1558852 C75.7960378,37.9872386 78.3699361,34.4605843 80.8460514,30.3832168 C83.7085669,25.5029123 84.9702817,22.1508744 86.7161796,19.7644502 C87.3975056,18.783912 88.1734602,18.4928847 88.7570033,19.2107521 C89.2427635,19.8017614 89.4840665,20.5211213 89.4840665,21.5509103 C89.4840665,23.1433522 88.4652317,25.3402354 86.765071,28.2848351 C85.358259,30.6712592 83.4656868,34.1098591 83.4656868,35.9366152 C83.4656868,36.7813407 83.7574583,37.2111657 84.3883157,37.1260962 C85.5617105,36.9708816 87.2019398,35.01279 88.6844547,32.7263599 C89.8294609,29.6205759 93.1777366,22.9702282 96.038675,18.383936 C96.6695324,17.41086 97.3965955,17.3586243 97.8823557,18.1376821 C98.3192245,18.783912 98.5621046,19.5465529 98.5621046,20.2972541 C98.5621046,20.6718585 98.5147903,21.0986986 98.4154302,21.5807593 C100.503568,19.3346253 103.220987,17.194455 104.77605,16.9870048 C106.327959,16.781047 107.348371,18.3317003 107.348371,20.2987466 C109.531138,18.1346972 112.103459,16.1989923 113.658522,16.0393004 C115.065334,15.8990103 115.841289,17.0616272 115.841289,18.6063107 C115.841289,20.200245 114.822454,22.4926449 112.833676,25.7058852 C111.474179,27.9027684 110.210887,30.1324855 110.210887,31.7697008 C110.210887,32.8487406 110.696647,33.5337742 111.474179,33.4322877 C112.978774,33.2308073 115.355529,29.6340079 117.153472,26.5386711 C117.274913,26.3237586 117.402661,26.1730214 117.53041,26.0581029 C119.599622,18.2331987 124.85151,9.31731522 129.436266,4.05643651 C130.357318,3.04306442 131.231056,2.64756573 132.155262,3.3669256 C133.221411,4.11613443 133.754485,5.35486615 133.754485,6.5756885 C133.754485,7.22938066 133.707171,7.75173742 133.462714,8.58153843 C131.959696,14.3558192 126.668379,20.586789 122.397475,23.9209175 C121.425954,26.4386771 120.795097,28.6295905 120.795097,30.2712832 C120.795097,31.3950964 121.085291,32.1517675 121.717726,32.0681904 C123.950961,31.7711933 126.766162,28.257971 128.609843,24.6402774 C128.786483,24.2880597 128.999397,24.0343436 129.21862,23.8627121 C130.234301,22.2523608 131.436084,20.4629158 132.686759,18.8033138 C132.104793,18.3645341 131.765707,17.8018813 131.765707,17.1914701 C131.765707,14.8020611 134.87268,11.0634792 136.375698,10.8634912 C137.394532,10.7291709 137.831401,11.2321258 137.831401,12.3081807 C137.831401,13.2006646 137.493892,14.6035655 136.959241,16.1721282 C138.123173,15.7363335 139.435356,14.9080249 140.89106,13.6827252 C141.717483,13.0126161 142.201666,12.8544166 142.832523,13.3782658 C143.512272,13.9439036 144.239335,15.0662244 144.239335,16.1900376 C144.239335,16.7526905 143.998032,17.4392165 143.463381,18.1182803 C140.843745,21.373309 138.075858,25.4417219 138.075858,28.2057353 C138.075858,29.4250652 138.463836,30.1220384 139.143585,30.0295066 C140.793277,29.8116092 142.736318,26.9311849 144.239335,23.4970623 C144.627313,22.6030861 145.307062,22.4657809 145.74393,23.249316 Z M42.5432283,24.608339 C41.3777193,26.2619712 39.9709072,28.8842021 39.2927355,30.1005471 C38.8558668,30.9079614 38.319638,31.3542033 37.3985861,30.5393268 C36.7188373,29.9751815 36.2330771,29.2408972 36.2330771,28.1648423 C36.2330771,27.1320683 36.8639345,25.268001 38.4663123,22.9935104 C39.6807128,21.0981016 40.989742,18.8639072 40.3115702,18.4863179 C38.5152038,17.4610062 27.8852564,25.7590163 27.6423763,31.1795869 C27.495702,34.2913407 34.1465162,36.0778008 36.0375113,37.1389312 C36.9617174,37.6717351 37.496369,38.4448231 37.496369,39.334322 C37.496369,40.4118694 36.8639345,41.7132839 35.6022197,43.3340823 C34.3389277,44.9071224 31.9621724,46.2085369 29.0491883,46.5935884 C25.5053468,47.065202 20.7975734,45.7712497 16.9619604,42.0192357 C16.2837886,41.310323 16.6228745,40.7506551 17.3026234,40.4267939 C17.6921778,40.280534 18.2252523,40.1626306 18.8072183,40.0850233 C20.2156075,39.8969749 21.573528,40.0924856 22.5923627,40.75364 C24.4865121,42.0013264 27.6912678,43.9176294 30.5048918,43.543025 C31.572618,43.4012425 32.5441384,43.0385776 33.0803672,42.4520456 C33.8058532,41.6506011 33.5629731,40.8416944 33.0298986,40.4894767 C29.5349485,38.3313971 22.7879285,36.6971667 22.7879285,31.9183486 C22.7879285,25.5470887 30.3597946,18.9668861 34.7300593,16.6043411 C36.33086,15.7357365 37.3512718,15.4596336 38.4663123,15.3118813 C39.6318214,15.1566667 40.6017646,15.3566547 41.4266107,15.9013982 C42.7876856,16.9386495 43.6598459,18.3684145 44.0005089,19.5892369 C44.484692,21.445842 43.2718686,23.4800484 42.5432283,24.608339 Z" id="Fill-3"></path>
            <path d="M123.003906,58.9169922 C123.622399,59.3694684 124.084634,59.9977173 124.390625,60.8017578 C124.696616,61.6057983 124.849609,62.5384062 124.849609,63.5996094 L124.849609,63.8046875 C124.849609,64.8789116 124.696616,65.821285 124.390625,66.6318359 C124.084634,67.4423869 123.625654,68.0722634 123.013672,68.5214844 C122.40169,68.9707054 121.643234,69.1953125 120.738281,69.1953125 C119.611974,69.1953125 118.713545,68.7558638 118.042969,67.8769531 L117.90625,69 L115.259766,69 L115.259766,54 L118.208984,54 L118.208984,59.3515625 C118.847008,58.6093713 119.683589,58.2382812 120.71875,58.2382812 C121.623702,58.2382812 122.385414,58.464516 123.003906,58.9169922 Z M121.900391,63.5996094 C121.900391,62.681636 121.75879,61.9557318 121.475586,61.421875 C121.192381,60.8880182 120.692712,60.6210938 119.976562,60.6210938 C119.117183,60.6210938 118.527996,60.9661424 118.208984,61.65625 L118.208984,65.7773438 C118.521486,66.4674514 119.117183,66.8125 119.996094,66.8125 C120.718754,66.8125 121.216796,66.5553411 121.490234,66.0410156 C121.763673,65.5266901 121.900391,64.7812549 121.900391,63.8046875 L121.900391,63.5996094 Z M135.816406,64.6738281 L129.136719,64.6738281 C129.247396,65.3313835 129.520831,65.8538392 129.957031,66.2412109 C130.393231,66.6285827 130.953122,66.8222656 131.636719,66.8222656 C132.144534,66.8222656 132.614907,66.7262379 133.047852,66.5341797 C133.480796,66.3421214 133.850259,66.0540384 134.15625,65.6699219 L135.572266,67.3007812 C135.20117,67.8346381 134.659183,68.2838523 133.946289,68.6484375 C133.233395,69.0130227 132.398442,69.1953125 131.441406,69.1953125 C130.360672,69.1953125 129.421553,68.9674502 128.624023,68.5117188 C127.826493,68.0559873 127.21452,67.4375039 126.788086,66.65625 C126.361652,65.8749961 126.148438,65.0123745 126.148438,64.0683594 L126.148438,63.6972656 C126.148438,62.6425729 126.347003,61.7018271 126.744141,60.875 C127.141278,60.0481729 127.714189,59.4020206 128.462891,58.9365234 C129.211592,58.4710263 130.097,58.2382812 131.119141,58.2382812 C132.115239,58.2382812 132.96484,58.4498677 133.667969,58.8730469 C134.371097,59.2962261 134.904946,59.896806 135.269531,60.6748047 C135.634116,61.4528034 135.816406,62.3691354 135.816406,63.4238281 L135.816406,64.6738281 Z M132.925781,62.4667969 C132.91276,61.8938773 132.754884,61.4414079 132.452148,61.109375 C132.149413,60.7773421 131.698571,60.6113281 131.099609,60.6113281 C130.539711,60.6113281 130.10189,60.7968731 129.786133,61.1679688 C129.470376,61.5390644 129.263672,62.050127 129.166016,62.7011719 L132.925781,62.7011719 L132.925781,62.4667969 Z M142.75,66.7050781 L142.75,68.921875 C142.242185,69.1041676 141.662764,69.1953125 141.011719,69.1953125 C138.941396,69.1953125 137.90625,68.1406355 137.90625,66.03125 L137.90625,60.5820312 L136.412109,60.5820312 L136.412109,58.4335938 L137.90625,58.4335938 L137.90625,55.8164062 L140.855469,55.8164062 L140.855469,58.4335938 L142.632812,58.4335938 L142.632812,60.5820312 L140.855469,60.5820312 L140.855469,65.6894531 C140.855469,66.1061219 140.936848,66.3909498 141.099609,66.5439453 C141.262371,66.6969409 141.539061,66.7734375 141.929688,66.7734375 C142.2487,66.7734375 142.522134,66.7506513 142.75,66.7050781 Z M152.857422,67.8476562 C152.929037,68.2187519 153.036458,68.5475246 153.179688,68.8339844 L153.179688,69 L150.220703,69 C150.090494,68.7460925 149.996094,68.4303404 149.9375,68.0527344 C149.266924,68.8144569 148.384771,69.1953125 147.291016,69.1953125 C146.62695,69.1953125 146.021487,69.0585951 145.474609,68.7851562 C144.927732,68.5117174 144.496421,68.134117 144.180664,67.6523438 C143.864907,67.1705705 143.707031,66.6269562 143.707031,66.0214844 C143.707031,64.9081976 144.120439,64.0504587 144.947266,63.4482422 C145.774093,62.8460256 146.991528,62.5449219 148.599609,62.5449219 L149.800781,62.5449219 L149.800781,61.9492188 C149.800781,61.4609351 149.677085,61.0817071 149.429688,60.8115234 C149.18229,60.5413398 148.8112,60.40625 148.316406,60.40625 C147.867185,60.40625 147.517254,60.5120432 147.266602,60.7236328 C147.015949,60.9352224 146.890625,61.2363262 146.890625,61.6269531 L143.941406,61.6269531 C143.941406,60.9954396 144.128579,60.4225286 144.50293,59.9082031 C144.877281,59.3938776 145.407874,58.9869807 146.094727,58.6875 C146.781579,58.3880193 147.574214,58.2382812 148.472656,58.2382812 C149.305994,58.2382812 150.044919,58.3782538 150.689453,58.6582031 C151.333988,58.9381524 151.83854,59.3580701 152.203125,59.9179688 C152.56771,60.4778674 152.75,61.1614543 152.75,61.96875 L152.75,66.3925781 C152.75,66.9915395 152.785807,67.4765606 152.857422,67.8476562 Z M149.087891,66.6806641 C149.413413,66.4951163 149.651041,66.2688815 149.800781,66.0019531 L149.800781,64.234375 L148.677734,64.234375 C147.994137,64.234375 147.484702,64.3824855 147.149414,64.6787109 C146.814126,64.9749364 146.646484,65.3606747 146.646484,65.8359375 C146.646484,66.1679704 146.765298,66.43815 147.00293,66.6464844 C147.240561,66.8548187 147.557941,66.9589844 147.955078,66.9589844 C148.384768,66.9589844 148.762368,66.8662119 149.087891,66.6806641 Z" id="beta-copy"></path>
        </g>
    </g>
</svg>

<svg width="166" height="74" xmlns="http://www.w3.org/2000/svg"><g fill="#fff" fill-rule="evenodd"><path d="M8 61.421s58.747-18.35 133.436-21.374c1.763-.07 3.25 1.002 3.25 2.34 0 1.238-1.27 2.261-2.903 2.33-13.595.58-72.55 3.742-126.16 16.704 0 .2-7.623 1.197-7.623 0m119.93-48.402c1.651-2.984 2.913-4.98 3.107-4.912.292.148-.34 2.294-1.99 5.185-1.117 1.976-2.767 4.35-4.855 6.595.343-.843 2.476-4.642 3.738-6.868m17.814 10.23c.339.614.39 1.732-.145 3.066-1.166 2.827-4.03 5.22-6.795 5.589-2.961.394-4.564-1.407-4.564-3.937 0-2.998 2.573-6.95 5.001-10.13a11.565 11.565 0 0 1-3.543 1.222c-3.642 6.574-6.407 11.253-7.088 14.576-.194.869-.825 1.373-1.699.599-.664-.514-1.033-1.224-1.156-2.018-1.205.83-2.566 1.483-3.988 1.673-2.344.31-3.968-.515-4.554-2.467-1.682 2.074-4.223 3.774-6.516 4.08-3.301.44-5.096-1.056-5.096-3.586 0-.845.194-1.9.727-3.142.776-1.697 2.38-4.438 3.495-6.274 1.068-1.69 2.233-3.249 1.844-3.197-.388.051-1.407.655-4.271 3.802-3.787 4.156-6.115 8.917-8.154 13.545-.486.957-1.164 1.187-1.942.539-.73-.605-1.067-1.215-1.067-2.434 0-.796.386-2.347.873-3.585.679-1.775 2.281-4.518 3.59-6.661 1.312-2.28 2.672-4.245 2.233-4.185-.388.052-2.279 1.334-5.192 4.813-2.717 3.173-4.952 7.733-6.843 12.294-.342.797-.874 1.149-1.7.555a2.652 2.652 0 0 1-.834-.932c-1.336 1.099-2.866 1.893-4.36 2.093-2.864.38-4.323-.785-4.515-2.867-1.65 2-3.834 3.741-6.31 4.071-1.694.226-2.67-.486-3.126-1.597-1.617 1.557-3.727 2.65-5.466 2.88-3.107.414-4.808-1.423-4.808-4.187 0-2.436 2.573-7.228 5.244-10.628-1.312.69-2.671 1.154-3.786 1.348-3.495 7.96-8.933 15.053-15.097 15.872-4.466.596-6.892-1.89-6.892-5.547 0-1.639.486-3.58 1.456-5.58 2.574-5.123 6.406-8.254 9.223-8.63.63-.083 1.213-.067 1.699.15 1.455.649 2.327 1.375 2.864 2.289.727 1.401-.05 3.19-.973 5.143-.338.746-.727 1.501-.873 2.035-.34 1.03-.533 1.288-1.745.842-.972-.34-1.7-1.227-1.7-2.49 0-.704.632-2.335 1.116-3.475.484-1.05.97-2.05.729-2.206-.633-.385-3.74 2.888-5.777 7.138-.97 2.05-1.458 3.99-1.458 5.397 0 1.967.827 3.169 2.233 3.075 4.757-.447 9.95-7.978 12.474-14.074-1.017-.332-1.358-.991-1.358-1.88 0-2.483 3.203-6.33 4.855-6.596 1.018-.136 1.406.422 1.406 1.452 0 .984-.388 2.442-.92 4.058 1.357-.51 2.67-1.292 4.223-2.576.727-.612 1.505-.904 2.135-.331.775.74 1.36 1.786 1.36 3.006 0 .56-.243 1.297-.826 1.985-2.087 2.619-4.467 5.978-5.243 8.566-.243.735-.388 1.457-.388 2.16 0 1.171.388 1.822 1.117 1.773 1.536-.073 4.026-2.998 5.539-6.165 1.093-3.102 3.532-8.031 6.5-12.443.632-.882 1.505-.906 2.089-.279.531.585.727 1.355.727 2.058 0 1.92-3.546 7.827-5.243 11.662-.873 1.99-1.02 3.74.05 3.6 1.261-.169 3.835-3.695 6.311-7.773 2.863-4.88 4.124-8.232 5.87-10.619.682-.98 1.457-1.271 2.041-.553.486.59.727 1.31.727 2.34 0 1.592-1.019 3.79-2.719 6.734-1.407 2.386-3.3 5.825-3.3 7.652 0 .844.292 1.274.923 1.19 1.174-.156 2.814-2.114 4.296-4.4 1.145-3.106 4.494-9.757 7.355-14.343.63-.973 1.358-1.025 1.843-.246.437.646.68 1.409.68 2.16 0 .374-.047.8-.147 1.283 2.089-2.246 4.806-4.387 6.361-4.594 1.552-.206 2.572 1.345 2.572 3.312 2.183-2.164 4.755-4.1 6.31-4.26 1.407-.14 2.183 1.023 2.183 2.567 0 1.594-1.019 3.887-3.007 7.1-1.36 2.197-2.623 4.426-2.623 6.064 0 1.079.486 1.764 1.263 1.662 1.505-.201 3.882-3.798 5.68-6.893.12-.215.249-.366.376-.48 2.07-7.826 7.322-16.742 11.906-22.003.921-1.013 1.795-1.408 2.72-.69 1.065.75 1.598 1.989 1.598 3.21 0 .653-.047 1.176-.291 2.006-1.503 5.774-6.795 12.005-11.066 15.339-.971 2.518-1.602 4.709-1.602 6.35 0 1.124.29 1.88.923 1.797 2.233-.297 5.048-3.81 6.892-7.428.176-.352.39-.606.609-.777a75.56 75.56 0 0 1 3.468-5.06c-.582-.438-.921-1.001-.921-1.612 0-2.389 3.107-6.128 4.61-6.328 1.019-.134 1.455.37 1.455 1.445 0 .893-.337 2.296-.872 3.864 1.164-.436 2.476-1.264 3.932-2.49.826-.67 1.31-.828 1.942-.304.68.566 1.406 1.688 1.406 2.812 0 .563-.241 1.25-.776 1.928-2.62 3.255-5.387 7.324-5.387 10.088 0 1.22.388 1.916 1.068 1.824 1.65-.218 3.592-3.099 5.095-6.533.388-.894 1.068-1.031 1.505-.248zm-103.2 1.36c-1.166 1.653-2.573 4.275-3.251 5.492-.437.807-.973 1.253-1.894.438-.68-.564-1.166-1.298-1.166-2.374 0-1.033.63-2.897 2.233-5.171 1.215-1.896 2.524-4.13 1.846-4.508-1.797-1.025-12.427 7.273-12.67 12.694-.146 3.111 6.505 4.898 8.396 5.959.924.533 1.458 1.306 1.458 2.195 0 1.078-.632 2.38-1.894 4-1.263 1.573-3.64 2.875-6.553 3.26-3.544.471-8.251-.823-12.087-4.575-.678-.709-.34-1.268.34-1.592.39-.146.923-.264 1.505-.342 1.409-.188 2.767.007 3.785.669 1.895 1.247 5.1 3.164 7.913 2.789 1.068-.142 2.04-.504 2.575-1.091.726-.801.483-1.61-.05-1.963-3.495-2.158-10.242-3.792-10.242-8.57 0-6.372 7.572-12.952 11.942-15.315 1.6-.868 2.621-1.144 3.736-1.292 1.166-.155 2.136.045 2.96.59 1.362 1.037 2.234 2.466 2.575 3.687.484 1.857-.73 3.891-1.458 5.02zM123.004 58.917c.618.452 1.08 1.08 1.387 1.885.306.804.459 1.736.459 2.798v.205c0 1.074-.153 2.016-.46 2.827-.305.81-.764 1.44-1.376 1.89-.612.449-1.37.673-2.276.673-1.126 0-2.024-.44-2.695-1.318L117.906 69h-2.646V54h2.949v5.352c.638-.743 1.475-1.114 2.51-1.114.905 0 1.666.227 2.285.679zM121.9 63.6c0-.918-.141-1.644-.424-2.178-.284-.534-.783-.8-1.5-.8-.859 0-1.448.344-1.767 1.034v4.121c.312.69.908 1.035 1.787 1.035.723 0 1.22-.257 1.494-.771s.41-1.26.41-2.236V63.6zm13.916 1.074h-6.68c.111.657.385 1.18.821 1.567.436.388.996.581 1.68.581a3.44 3.44 0 0 0 1.41-.288c.434-.192.803-.48 1.11-.864l1.415 1.63c-.37.535-.913.984-1.626 1.348-.713.365-1.548.547-2.505.547-1.08 0-2.02-.228-2.817-.683a4.701 4.701 0 0 1-1.836-1.856 5.312 5.312 0 0 1-.64-2.588v-.37c0-1.055.199-1.996.596-2.823a4.544 4.544 0 0 1 1.719-1.938c.749-.466 1.634-.699 2.656-.699.996 0 1.846.212 2.549.635a4.054 4.054 0 0 1 1.602 1.802c.364.778.546 1.694.546 2.749v1.25zm-2.89-2.207c-.013-.573-.171-1.026-.474-1.358-.303-.332-.753-.498-1.352-.498-.56 0-.998.186-1.314.557-.316.371-.522.882-.62 1.533h3.76v-.234zm9.824 4.238v2.217c-.508.182-1.087.273-1.738.273-2.07 0-3.106-1.054-3.106-3.164v-5.449h-1.494v-2.148h1.494v-2.618h2.95v2.618h1.777v2.148h-1.778v5.107c0 .417.082.702.245.855.162.153.44.23.83.23.319 0 .592-.023.82-.069zm10.107 1.143c.072.37.18.7.323.986V69h-2.96a3.134 3.134 0 0 1-.282-.947c-.671.761-1.553 1.142-2.647 1.142-.664 0-1.27-.136-1.816-.41a3.248 3.248 0 0 1-1.294-1.133 2.91 2.91 0 0 1-.474-1.63c0-1.114.413-1.972 1.24-2.574.827-.602 2.045-.903 3.653-.903h1.2v-.596c0-.488-.123-.867-.37-1.137-.248-.27-.619-.406-1.114-.406-.449 0-.799.106-1.05.318-.25.211-.375.512-.375.903h-2.95c0-.632.188-1.204.562-1.719.374-.514.905-.921 1.592-1.22.687-.3 1.48-.45 2.378-.45.833 0 1.572.14 2.216.42.645.28 1.15.7 1.514 1.26.365.56.547 1.243.547 2.05v4.425c0 .599.036 1.084.107 1.455zm-3.77-1.167c.326-.186.564-.412.714-.679v-1.768h-1.123c-.684 0-1.193.148-1.529.445-.335.296-.503.682-.503 1.157 0 .332.12.602.357.81.238.209.555.313.952.313.43 0 .807-.093 1.133-.278z"/></g></svg>
